public/icons/EditIcon.svg

<svg width="24" height="24" viewBox="0 0 24 24" fill="none" xmlns="http://www.w3.org/2000/svg">
<rect width="24" height="24" fill="white"/>
<path d="M11.262 6.47607H6.39156C6.02249 6.47607 5.66855 6.62268 5.40758 6.88365C5.14661 7.14462 5 7.49857 5 7.86763V17.6085C5 17.9776 5.14661 18.3316 5.40758 18.5925C5.66855 18.8535 6.02249 19.0001 6.39156 19.0001H16.1325C16.5015 19.0001 16.8555 18.8535 17.1164 18.5925C17.3774 18.3316 17.524 17.9776 17.524 17.6085V12.7381" stroke="#767676" stroke-linecap="round" stroke-linejoin="round"/>
<path d="M16.4805 5.4323C16.7573 5.1555 17.1327 5 17.5242 5C17.9156 5 18.291 5.1555 18.5678 5.4323C18.8446 5.7091 19.0001 6.08452 19.0001 6.47597C19.0001 6.86742 18.8446 7.24284 18.5678 7.51964L11.9579 14.1295L9.1748 14.8253L9.87058 12.0422L16.4805 5.4323Z" stroke="#767676" stroke-linecap="round" stroke-linejoin="round"/>
</svg>

<svg width="24" height="24" fill="none" xmlns="http://www.w3.org/2000/svg"><path fill="#fff" d="M0 0h24v24H0z"/><path d="M11.262 6.476h-4.87A1.392 1.392 0 0 0 5 7.868v9.74A1.391 1.391 0 0 0 6.392 19h9.74a1.391 1.391 0 0 0 1.392-1.392v-4.87" stroke="#767676" stroke-linecap="round" stroke-linejoin="round"/><path d="M16.48 5.432a1.476 1.476 0 1 1 2.088 2.088l-6.61 6.61-2.783.695.696-2.783 6.61-6.61Z" stroke="#767676" stroke-linecap="round" stroke-linejoin="round"/></svg>
